Papirus/64x64/apps/asciiportal.svg

<?xml version="1.0" encoding="UTF-8" standalone="no"?>
<svg
   id="_图层_1"
   version="1.1"
   viewBox="0 0 64 64" width="64" height="64"
   sodipodi:docname="asciiportal.svg"
   xml:space="preserve"
   inkscape:version="1.4 (e7c3feb100, 2024-10-09)"
   xmlns:inkscape="http://www.inkscape.org/namespaces/inkscape"
   xmlns:sodipodi="http://sodipodi.sourceforge.net/DTD/sodipodi-0.dtd"
   xmlns="http://www.w3.org/2000/svg"
   xmlns:svg="http://www.w3.org/2000/svg"><sodipodi:namedview
     id="namedview26"
     pagecolor="#505050"
     bordercolor="#eeeeee"
     borderopacity="1"
     inkscape:showpageshadow="0"
     inkscape:pageopacity="0"
     inkscape:pagecheckerboard="0"
     inkscape:deskcolor="#505050"
     inkscape:zoom="10.6875"
     inkscape:cx="32"
     inkscape:cy="32"
     inkscape:window-width="1920"
     inkscape:window-height="939"
     inkscape:window-x="0"
     inkscape:window-y="34"
     inkscape:window-maximized="1"
     inkscape:current-layer="_图层_1" /><!-- Generator: Adobe Illustrator 29.0.1, SVG Export Plug-In . SVG Version: 2.1.0 Build 192)  --><defs
     id="defs6"><style
       id="style1">
      .st0 {
        fill-opacity: .5;
      }

      .st0, .st1, .st2, .st3, .st4, .st5, .st6, .st7 {
        fill: #fff;
      }

      .st8 {
        fill: #133c9a;
      }

      .st2, .st9 {
        display: none;
      }

      .st3 {
        fill-opacity: .2;
      }

      .st4 {
        fill-opacity: .9;
      }

      .st10 {
        fill: #3370ff;
      }

      .st11 {
        fill: url(#_未命名的渐变_3);
      }

      .st12 {
        fill: url(#_未命名的渐变);
      }

      .st5 {
        fill-opacity: .3;
      }

      .st6 {
        fill-opacity: 0;
      }

      .st7 {
        fill-opacity: .7;
      }

      .st13 {
        fill: #00d6b9;
      }

      .st14 {
        fill: url(#_未命名的渐变_2);
      }
    </style><radialGradient
       id="_未命名的渐变"
       data-name="未命名的渐变"
       cx="123.9"
       cy="-40.2"
       fx="123.9"
       fy="-40.2"
       r="59.4"
       gradientTransform="translate(-26.8 25.5) scale(.6 -.7)"
       gradientUnits="userSpaceOnUse"><stop
         offset="0"
         stop-color="#db202e"
         id="stop1" /><stop
         offset="1"
         stop-color="#e01b24"
         id="stop2" /></radialGradient><radialGradient
       id="_未命名的渐变_2"
       data-name="未命名的渐变 2"
       cx="67.6"
       cy="26.8"
       fx="67.6"
       fy="26.8"
       r="105.2"
       gradientTransform="translate(-26.6 25.3) scale(.6 -.7)"
       gradientUnits="userSpaceOnUse"><stop
         offset="0"
         stop-color="#ffb648"
         id="stop3" /><stop
         offset="1"
         stop-color="#ff7800"
         stop-opacity="0"
         id="stop4" /></radialGradient><radialGradient
       id="_未命名的渐变_3"
       data-name="未命名的渐变 3"
       cx="61.7"
       cy="18.6"
       fx="61.7"
       fy="18.6"
       r="68"
       gradientTransform="translate(-26.8 25.8) scale(.6 -.7)"
       gradientUnits="userSpaceOnUse"><stop
         offset="0"
         stop-color="#c64600"
         id="stop5" /><stop
         offset="1"
         stop-color="#a51d2d"
         id="stop6" /></radialGradient></defs><path
     class="st1"
     d="M47.5,64.1H13.8c-7.6,0-13.8-6.3-13.8-13.8V13.7C0,6.2,6.2,0,13.7,0h36.6c7.5,0,13.7,6.2,13.7,13.7v36.6c0,7.5-6.2,13.7-13.7,13.7h-2.9.1Z"
     id="path6"
     style="fill:#ffffff;fill-opacity:1" /><g
     id="g26"
     transform="matrix(0.93817878,0,0,0.91628193,1.8379282,2.1740535)"><path
       style="opacity:0.2"
       d="m 26,5 v 3 h -5 v 3 h -6 v 3 h -3 v 3 H 9 v 3 H 6 v 3 H 4 v 18 h 2 v 5 h 3 v 3 h 3 v 3 h 3 v 3 h 6 v 3 h 5 v 3 h 11 v -3 h 5 v -3 h 6 v -3 h 3 v -3 h 3 v -3 h 3 v -5 h 3 V 25 H 57 V 20 H 54 V 17 H 51 V 14 H 48 V 11 H 42 V 8 H 38 V 5 Z"
       id="path1" /><path
       style="fill:#f37b21"
       d="m 26,4 v 3 h -5 v 3 h -6 v 3 h -3 v 3 H 9 v 3 H 6 v 3 H 4 v 18 h 2 v 5 h 3 v 3 h 3 v 3 h 3 v 3 h 6 v 3 h 5 v 3 h 11 v -3 h 5 v -3 h 6 v -3 h 3 v -3 h 3 v -3 h 3 v -5 h 3 V 24 H 57 V 19 H 54 V 16 H 51 V 13 H 48 V 10 H 42 V 7 H 38 V 4 Z"
       id="path2" /><path
       style="opacity:0.2;fill:#f9f9f9"
       d="M 26,4 V 5 H 38 V 4 Z m -5,3 v 1 h 5 V 7 Z m 17,0 v 1 h 4 V 7 Z m -23,3 v 1 h 6 v -1 z m 27,0 v 1 h 6 v -1 z m -30,3 v 1 h 3 v -1 z m 36,0 v 1 h 3 V 13 Z M 9,16 v 1 h 3 v -1 z m 42,0 v 1 h 3 V 16 Z M 6,19 v 1 h 3 v -1 z m 48,0 v 1 h 3 V 19 Z M 4,22 v 1 h 2 v -1 z m 53,2 v 1 h 3 v -1 z"
       id="path3" /><path
       style="opacity:0.2"
       d="m 35,5 v 15 h -8 v 3 H 4 v 3 h 17 v 3 h -3 v 8 h 3 v 3 14 3 h 3 V 43 h 3 v 3 h 9 v -3 h 3 v -3 h 18 3 V 37 H 45 V 29 H 42 V 26 H 38 V 7 5 Z m 7,21 h 3 v -3 h -3 z m 3,-3 h 3 v -3 h -3 z m 3,-3 h 3 v -3 h -3 z m -9,23 v 3 h 3 v -3 z m 3,3 v 3 h 3 v -3 z m 3,3 v 3 h 3 V 51 49 Z M 18,37 h -3 v 3 h 3 z m -3,3 h -3 v 3 h 3 z m -3,3 H 9 v 2 1 h 3 z M 27,20 v -3 h -3 v 3 z m -3,-3 v -3 h -3 v 3 z m -3,-3 v -3 h -3 v 3 z"
       id="path4" /><path
       style="fill:#ffffff"
       d="m 35,4 v 15 h -8 v 3 H 4 v 3 h 17 v 3 h -3 v 8 h 3 v 3 18 h 3 V 42 h 3 v 3 h 9 v -3 h 3 V 39 H 60 V 36 H 45 V 28 H 42 V 25 H 38 V 4 Z m 7,21 h 3 v -3 h -3 z m 3,-3 h 3 v -3 h -3 z m 3,-3 h 3 v -3 h -3 z m -9,23 v 3 h 3 v -3 z m 3,3 v 3 h 3 v -3 z m 3,3 v 3 h 3 V 48 Z M 18,36 h -3 v 3 h 3 z m -3,3 h -3 v 3 h 3 z m -3,3 H 9 v 3 h 3 z M 27,19 v -3 h -3 v 3 z m -3,-3 v -3 h -3 v 3 z m -3,-3 v -3 h -3 v 3 z"
       id="path5" /></g></svg>

<svg xmlns="http://www.w3.org/2000/svg" width="64" height="64" version="1.1">
 <path style="opacity:0.2" d="m 26,5 v 3 h -5 v 3 h -6 v 3 h -3 v 3 H 9 v 3 H 6 v 3 H 4 v 18 h 2 v 5 h 3 v 3 h 3 v 3 h 3 v 3 h 6 v 3 h 5 v 3 h 11 v -3 h 5 v -3 h 6 v -3 h 3 v -3 h 3 v -3 h 3 v -5 h 3 V 25 H 57 V 20 H 54 V 17 H 51 V 14 H 48 V 11 H 42 V 8 H 38 V 5 Z"/>
 <path style="fill:#f37b21" d="m 26,4 v 3 h -5 v 3 h -6 v 3 h -3 v 3 H 9 v 3 H 6 v 3 H 4 v 18 h 2 v 5 h 3 v 3 h 3 v 3 h 3 v 3 h 6 v 3 h 5 v 3 h 11 v -3 h 5 v -3 h 6 v -3 h 3 v -3 h 3 v -3 h 3 v -5 h 3 V 24 H 57 V 19 H 54 V 16 H 51 V 13 H 48 V 10 H 42 V 7 H 38 V 4 Z"/>
 <path style="opacity:0.2;fill:#f9f9f9" d="M 26 4 L 26 5 L 38 5 L 38 4 L 26 4 z M 21 7 L 21 8 L 26 8 L 26 7 L 21 7 z M 38 7 L 38 8 L 42 8 L 42 7 L 38 7 z M 15 10 L 15 11 L 21 11 L 21 10 L 15 10 z M 42 10 L 42 11 L 48 11 L 48 10 L 42 10 z M 12 13 L 12 14 L 15 14 L 15 13 L 12 13 z M 48 13 L 48 14 L 51 14 L 51 13 L 48 13 z M 9 16 L 9 17 L 12 17 L 12 16 L 9 16 z M 51 16 L 51 17 L 54 17 L 54 16 L 51 16 z M 6 19 L 6 20 L 9 20 L 9 19 L 6 19 z M 54 19 L 54 20 L 57 20 L 57 19 L 54 19 z M 4 22 L 4 23 L 6 23 L 6 22 L 4 22 z M 57 24 L 57 25 L 60 25 L 60 24 L 57 24 z"/>
 <path style="opacity:0.2" d="M 35 5 L 35 20 L 27 20 L 27 23 L 4 23 L 4 26 L 21 26 L 21 29 L 18 29 L 18 37 L 21 37 L 21 40 L 21 54 L 21 57 L 24 57 L 24 43 L 27 43 L 27 46 L 36 46 L 36 43 L 39 43 L 39 40 L 57 40 L 60 40 L 60 37 L 45 37 L 45 29 L 42 29 L 42 26 L 38 26 L 38 7 L 38 5 L 35 5 z M 42 26 L 45 26 L 45 23 L 42 23 L 42 26 z M 45 23 L 48 23 L 48 20 L 45 20 L 45 23 z M 48 20 L 51 20 L 51 17 L 48 17 L 48 20 z M 39 43 L 39 46 L 42 46 L 42 43 L 39 43 z M 42 46 L 42 49 L 45 49 L 45 46 L 42 46 z M 45 49 L 45 52 L 48 52 L 48 51 L 48 49 L 45 49 z M 18 37 L 15 37 L 15 40 L 18 40 L 18 37 z M 15 40 L 12 40 L 12 43 L 15 43 L 15 40 z M 12 43 L 9 43 L 9 45 L 9 46 L 12 46 L 12 43 z M 27 20 L 27 17 L 24 17 L 24 20 L 27 20 z M 24 17 L 24 14 L 21 14 L 21 17 L 24 17 z M 21 14 L 21 11 L 18 11 L 18 14 L 21 14 z"/>
 <path style="fill:#ffffff" d="m 35,4 v 15 h -8 v 3 H 4 v 3 h 17 v 3 h -3 v 8 h 3 v 3 18 h 3 V 42 h 3 v 3 h 9 v -3 h 3 V 39 H 60 V 36 H 45 V 28 H 42 V 25 H 38 V 4 Z m 7,21 h 3 v -3 h -3 z m 3,-3 h 3 v -3 h -3 z m 3,-3 h 3 v -3 h -3 z m -9,23 v 3 h 3 v -3 z m 3,3 v 3 h 3 v -3 z m 3,3 v 3 h 3 V 48 Z M 18,36 h -3 v 3 h 3 z m -3,3 h -3 v 3 h 3 z m -3,3 H 9 v 3 h 3 z M 27,19 v -3 h -3 v 3 z m -3,-3 v -3 h -3 v 3 z m -3,-3 v -3 h -3 v 3 z"/>
</svg>
